src/assets/logon1u/logo black.svg

<svg fill="none" height="80" viewBox="0 0 177 80" width="177" xmlns="http://www.w3.org/2000/svg" xmlns:xlink="http://www.w3.org/1999/xlink"><clipPath id="a"><path d="m0 0h177v80h-177z"/></clipPath><g clip-path="url(#a)" fill="#070707"><path d="m53.3852 21.7761c-5.5971-5.7417-12.9665-8.6522-21.9085-8.6522-8.9419 0-16.9644 2.8444-22.73464 8.467-5.79695 5.6491-8.74206 13.0974-8.74206 22.1333v24.8718c0 5.6624 4.65088 10.2795 10.3545 10.2795 5.7037 0 10.3546-4.6171 10.3546-10.2795v-24.7924c0-3.5853.9328-6.3238 2.8385-8.3612 1.839-1.958 4.2111-2.8708 7.476-2.8708 3.265 0 5.4105.8864 7.1829 2.8047 1.8657 2.0109 2.7586 4.7362 2.7586 8.3479l.0799 24.8983c.0133 5.6491 4.6642 10.253 10.3679 10.253s10.3545-4.6171 10.3545-10.2795v-24.5146c0-9.1153-2.8118-16.6297-8.3689-22.3185z"/><path d="m123.681 70.3159c5.624 5.7152 12.994 8.6125 21.936 8.5728 9.315-.0264 16.964-2.9105 22.708-8.5464 5.783-5.6623 8.688-13.1238 8.662-22.1729l-.08-24.8719c-.014-5.6623-4.678-10.2662-10.395-10.2398-5.703.0133-10.341 4.6437-10.314 10.3192l.08 24.7925c0 3.5852-.907 6.3238-2.812 8.3744-1.826 1.9712-4.198 2.884-7.463 2.8973-3.132 0-5.41-.8732-7.183-2.7783-1.866-2.0109-2.785-4.7362-2.798-8.3479l-.16-24.8983c-.04-5.6491-4.691-10.2266-10.408-10.2133-5.717.0132-10.341 4.6436-10.315 10.3191l.08 24.5147c.027 9.1152 2.865 16.6165 8.449 22.292z"/><path d="m100.014 3.12221c-.0934-.09261-.1734-.18522-.2667-.27782-1.7324-1.74632-4.1444-2.84439-6.823-2.84439-3.0518 0-5.7703 1.42881-7.5161 3.63817l-15.5518 15.18773c-3.6914 3.6646-3.9312 9.6312-.3465 13.3884 3.7048 3.9028 9.9281 3.9689 13.7128.1985l.1333-.1323v38.0221c0 5.1728 4.0778 9.5651 9.2884 9.7106 5.3972.1456 9.8346-4.1673 9.8346-9.4857v-59.9702c.28-2.63271-.546-5.35803-2.478-7.43509z"/></g></svg>

<svg width="177" height="80" viewBox="0 0 177 80" fill="none" xmlns="http://www.w3.org/2000/svg">
<g clip-path="url(#clip0_101_1246)">
<path d="M53.3852 21.7761C47.7881 16.0344 40.4187 13.1239 31.4767 13.1239C22.5348 13.1239 14.5123 15.9683 8.74206 21.5909C2.94511 27.24 0 34.6883 0 43.7242V68.596C0 74.2584 4.65088 78.8755 10.3545 78.8755C16.0582 78.8755 20.7091 74.2584 20.7091 68.596V43.8036C20.7091 40.2183 21.6419 37.4798 23.5476 35.4424C25.3866 33.4844 27.7587 32.5716 31.0236 32.5716C34.2886 32.5716 36.4341 33.458 38.2065 35.3763C40.0722 37.3872 40.9651 40.1125 40.9651 43.7242L41.045 68.6225C41.0583 74.2716 45.7092 78.8755 51.4129 78.8755C57.1166 78.8755 61.7674 74.2584 61.7674 68.596V44.0814C61.7674 34.9661 58.9556 27.4517 53.3985 21.7629L53.3852 21.7761Z" fill="#070707"/>
<path d="M123.681 70.3159C129.305 76.0311 136.675 78.9284 145.617 78.8887C154.932 78.8623 162.581 75.9782 168.325 70.3423C174.108 64.68 177.013 57.2185 176.987 48.1694L176.907 23.2975C176.893 17.6352 172.229 13.0313 166.512 13.0577C160.809 13.071 156.171 17.7014 156.198 23.3769L156.278 48.1694C156.278 51.7546 155.371 54.4932 153.466 56.5438C151.64 58.515 149.268 59.4278 146.003 59.4411C142.871 59.4411 140.593 58.5679 138.82 56.6628C136.954 54.6519 136.035 51.9266 136.022 48.3149L135.862 23.4166C135.822 17.7675 131.171 13.19 125.454 13.2033C119.737 13.2165 115.113 17.8469 115.139 23.5224L115.219 48.0371C115.246 57.1523 118.084 64.6536 123.668 70.3291L123.681 70.3159Z" fill="#070707"/>
<path d="M100.014 3.12221C99.9206 3.0296 99.8406 2.93699 99.7473 2.84439C98.0149 1.09807 95.6029 0 92.9243 0C89.8725 0 87.154 1.42881 85.4082 3.63817L69.8564 18.8259C66.165 22.4905 65.9252 28.4571 69.5099 32.2143C73.2147 36.1171 79.438 36.1832 83.2227 32.4128L83.356 32.2805V70.3026C83.356 75.4754 87.4338 79.8677 92.6444 80.0132C98.0416 80.1588 102.479 75.8459 102.479 70.5275V10.5573C102.759 7.92459 101.933 5.19927 100.001 3.12221H100.014Z" fill="#070707"/>
</g>
<defs>
<clipPath id="clip0_101_1246">
<rect width="177" height="80" fill="white"/>
</clipPath>
</defs>
</svg>
